X:4
T:Addig megyek...
L:1/4
M:4/4
Q: 1/4=150
O: Üsztürü, Napom napom, MNT 108
K:F
gfed | defe | d<d d z |
w: Ad-dig me-gyek míg a vil-ág vi-lág lesz
gfed | dce>d | c<c c z |
w: Míg az é-gen két ra-gyo-gó csil-lag lesz
BBdd | _edc B | dc B z |
w: Csil-la-gos ég mer-re van az én ha-zám
w: de-hogy si-rat rég el-va-gyok fe-led-ve
dddG | B(B{d})/c>B | A<GG z |
w: Mer-re si-rat en-gem az é-des anyám
w: Meg se hal-tam már el va-gyok te-met-ve
w:

